src/assets/danger.svg

<svg xmlns="http://www.w3.org/2000/svg" xmlns:xlink="http://www.w3.org/1999/xlink" width="500" zoomAndPan="magnify" viewBox="0 0 375 374.999991" height="500" preserveAspectRatio="xMidYMid meet" version="1.0"><defs><g/><clipPath id="6ca7e2bf04"><path d="M 265.136719 0 L 375 109.863281 L 375 265.136719 L 265.136719 375 L 109.863281 375 L 0 265.136719 L 0 109.863281 L 109.863281 0 Z M 265.136719 0 " clip-rule="nonzero"/></clipPath><clipPath id="2c77c820c6"><path d="M 12.878906 12.878906 L 362.121094 12.878906 L 362.121094 362.121094 L 12.878906 362.121094 Z M 12.878906 12.878906 " clip-rule="nonzero"/></clipPath><clipPath id="3d94df7d66"><path d="M 259.804688 12.878906 L 362.121094 115.195312 L 362.121094 259.804688 L 259.804688 362.121094 L 115.195312 362.121094 L 12.878906 259.804688 L 12.878906 115.195312 L 115.195312 12.878906 Z M 259.804688 12.878906 " clip-rule="nonzero"/></clipPath><clipPath id="8793709a64"><path d="M 12.878906 12.878906 L 362.109375 12.878906 L 362.109375 362.109375 L 12.878906 362.109375 Z M 12.878906 12.878906 " clip-rule="nonzero"/></clipPath><clipPath id="fdb3fe29d8"><path d="M 259.796875 12.878906 L 362.109375 115.191406 L 362.109375 259.796875 L 259.796875 362.109375 L 115.191406 362.109375 L 12.878906 259.796875 L 12.878906 115.191406 L 115.191406 12.878906 Z M 259.796875 12.878906 " clip-rule="nonzero"/></clipPath></defs><g clip-path="url(#6ca7e2bf04)"><rect x="-37.5" width="450" fill="#b91c1c" y="-37.499999" height="449.999989" fill-opacity="1"/></g><g clip-path="url(#2c77c820c6)"><g clip-path="url(#3d94df7d66)"><path fill="#b91c1c" d="M 12.878906 12.878906 L 362.121094 12.878906 L 362.121094 362.121094 L 12.878906 362.121094 Z M 12.878906 12.878906 " fill-opacity="1" fill-rule="nonzero"/></g></g><g clip-path="url(#8793709a64)"><g clip-path="url(#fdb3fe29d8)"><path stroke-linecap="butt" transform="matrix(0.75, 0, 0, 0.75, 12.879396, 12.879392)" fill="none" stroke-linejoin="miter" d="M 329.223327 -0.000647072 L 465.640003 136.416029 L 465.640003 329.223333 L 329.223327 465.640009 L 136.416023 465.640009 L -0.000653072 329.223333 L -0.000653072 136.416029 L 136.416023 -0.000647072 Z M 329.223327 -0.000647072 " stroke="#ffffff" stroke-width="34" stroke-opacity="1" stroke-miterlimit="4"/></g></g><g fill="#ffffff" fill-opacity="1"><g transform="translate(111.648432, 267.442446)"><g><path d="M 2.828125 0 L 56.25 -79.859375 L 3.046875 -159.609375 L 37.28125 -159.609375 L 75.90625 -98.046875 L 114.53125 -159.609375 L 148.765625 -159.609375 L 95.5625 -79.859375 L 148.984375 0 L 114.765625 0 L 75.671875 -60.65625 L 37.046875 0 Z M 2.828125 0 "/></g></g></g></svg>

<svg xmlns="http://www.w3.org/2000/svg" width="500" height="500" viewBox="0 0 375 375"><defs><clipPath id="6ca7e2bf04"><path d="M265.137 0 375 109.863v155.274L265.137 375H109.863L0 265.137V109.863L109.863 0Zm0 0"/></clipPath><clipPath id="2c77c820c6"><path d="M12.879 12.879H362.12V362.12H12.88Zm0 0"/></clipPath><clipPath id="3d94df7d66"><path d="M259.805 12.879 362.12 115.195v144.61L259.805 362.12h-144.61L12.88 259.805v-144.61L115.195 12.88Zm0 0"/></clipPath><clipPath id="8793709a64"><path d="M12.879 12.879h349.23v349.23H12.88Zm0 0"/></clipPath><clipPath id="fdb3fe29d8"><path d="M259.797 12.879 362.109 115.19v144.606L259.797 362.109H115.19L12.88 259.797V115.19L115.19 12.88Zm0 0"/></clipPath></defs><g clip-path="url(#6ca7e2bf04)"><path fill="#b91c1c" d="M-37.5-37.5h450v450h-450z"/></g><g clip-path="url(#2c77c820c6)"><g clip-path="url(#3d94df7d66)"><path fill="#b91c1c" d="M12.879 12.879H362.12V362.12H12.88Zm0 0"/></g></g><g clip-path="url(#8793709a64)"><g clip-path="url(#fdb3fe29d8)"><path fill="none" stroke="#fff" stroke-width="25.5" d="M259.797 12.879 362.109 115.19v144.606L259.797 362.109H115.19L12.88 259.797V115.19L115.19 12.88Zm0 0"/></g></g><path fill="#fff" d="m114.477 267.442 53.421-79.859-53.203-79.75h34.235l38.625 61.563 38.625-61.563h34.234l-53.203 79.75 53.422 79.86h-34.219l-39.094-60.657-38.625 60.656Zm0 0"/></svg>
